icon/pk/clothes-turtleneck.svg

<svg width="48" height="48" fill="none" xmlns="http://www.w3.org/2000/svg"><path d="M37 23v14m-26 0v7h26v-7m-26 0H4V23c0-3 2-6.5 5-9s9-4 9-4h12s6 1.5 9 4 5 6 5 9v14h-7m-26 0V23" stroke="#000" stroke-width="4" stroke-linecap="round" stroke-linejoin="round"/><path d="M30 10H18V4h12v6Z" fill="#2F88FF" stroke="#000" stroke-width="4" stroke-linecap="round" stroke-linejoin="round"/></svg>

<svg viewBox="0 0 48 48" fill="none" xmlns="http://www.w3.org/2000/svg" height="1em" width="1em">
  <path d="M37 23V37M11 37V44H37V37M11 37H4V23C4 20 6 16.5 9 14C12 11.5 18 10 18 10H30C30 10 36 11.5 39 14C42 16.5 44 20 44 23V37H37M11 37V23" stroke="black" stroke-width="4" stroke-linecap="round" stroke-linejoin="round"/>
  <path d="M30 10H18V4H30V10Z" fill="#2F88FF" stroke="black" stroke-width="4" stroke-linecap="round" stroke-linejoin="round"/>
</svg>
